X: 1
T: Jock Brown's 70th
R: hornpipe
M: 4/4
L: 1/8
K: Amix
cd|:e2ee efed|cAA/A/A eAce|f/g/-g3 gfga|e/f/-f3 fefg|
aeed e3d|cAA/A/A eAcA|GAA/A/A cddA|GAde d2cd:|
|:a2cd ecde|cdac decd|a2cd ecde|cdac dggg|
a2cd ecde|cdac decA|GAA/A/A cddA|1 GAde d2cd:|2 GAde d2dc||
|:AAGA AGAA|GAAG AAdc|AAGA AGAA|GAde d2dc|
AAGA AGAA|GAAG AAdA|GAde d2dA|dcde d2dc:|


Tune 10023	Setting 29514

